pro/src/icons/stroke-localisation.svg

<svg width="48" height="48" viewBox="0 0 48 48" fill="none" xmlns="http://www.w3.org/2000/svg">
<path id="icon" d="M25.8053 44.0001C25.7764 44.0001 25.7476 44.0001 25.7283 44.0001C24.9204 43.9711 24.2182 43.4502 23.9489 42.6881L18.9665 28.7674L5.16399 22.5065C4.4426 22.1785 3.99053 21.4549 4.00015 20.6639C4.01939 19.8728 4.50031 19.1589 5.23132 18.8599L12.9934 15.686C13.484 15.4834 14.0419 15.7246 14.2438 16.2166C14.4458 16.7086 14.2054 17.2681 13.7148 17.4707L5.9527 20.6446L5.55835 21.6286L5.9527 20.7507L19.7168 26.973C20.2073 27.1949 20.5824 27.6097 20.7652 28.1114L25.7476 42.0321H25.8437L42.0605 6.00036L41.6277 5.03566L41.9932 5.93284L21.4866 14.3065C20.996 14.5091 20.4285 14.2679 20.2362 13.7759C20.0342 13.2839 20.2746 12.7244 20.7652 12.5218L41.2718 4.14813C42.0317 3.83943 42.8781 4.02272 43.4456 4.61119C44.0131 5.19966 44.1574 6.05825 43.8207 6.80107L27.6039 42.8328C27.2865 43.5466 26.5844 44.0001 25.8053 44.0001Z" fill="currentColor"/>
</svg>

<svg xmlns="http://www.w3.org/2000/svg" width="48" height="48" fill="none"><path id="icon" fill="currentColor" d="M25.805 44h-.077a1.96 1.96 0 0 1-1.78-1.312l-4.982-13.92-13.802-6.262A1.99 1.99 0 0 1 4 20.665a2 2 0 0 1 1.231-1.804l7.762-3.174a.963.963 0 0 1 .721 1.785l-7.761 3.174-.395.984.395-.878 13.764 6.222c.49.222.865.637 1.048 1.138l4.983 13.921h.096L42.06 6l-.432-.964.365.897-20.506 8.374a.955.955 0 0 1-1.25-.531.963.963 0 0 1 .528-1.254l20.507-8.374a1.97 1.97 0 0 1 2.174.463c.567.589.711 1.447.375 2.19L27.604 42.833A1.96 1.96 0 0 1 25.805 44"/></svg>
